src/assets/facebook.svg

<svg xmlns="http://www.w3.org/2000/svg" width="21" height="20" fill="none"><path fill="#fff" d="M20.5 10c0-5.52-4.48-10-10-10S.5 4.48.5 10c0 4.84 3.44 8.87 8 9.8V13h-2v-3h2V7.5C8.5 5.57 10.07 4 12 4h2.5v3h-2c-.55 0-1 .45-1 1v2h3v3h-3v6.95c5.05-.5 9-4.76 9-9.95"/></svg>

<svg width="21" height="20" viewBox="0 0 21 20" fill="none" xmlns="http://www.w3.org/2000/svg">
<path d="M20.5 10C20.5 4.48 16.02 0 10.5 0C4.98 0 0.5 4.48 0.5 10C0.5 14.84 3.94 18.87 8.5 19.8V13H6.5V10H8.5V7.5C8.5 5.57 10.07 4 12 4H14.5V7H12.5C11.95 7 11.5 7.45 11.5 8V10H14.5V13H11.5V19.95C16.55 19.45 20.5 15.19 20.5 10Z" fill="white"/>
</svg>
